src/24/actions/transform-shear-left.svg

<svg xmlns="http://www.w3.org/2000/svg" viewBox="0 0 24 24"><path d="M4 4v10h3v-1H5V5h11v4h1V4H4zm4 6l.1 1 .9 9h11l-.1-1-.9-9H8zm1.1 1h9l.8 8h-9l-.8-8z" fill="currentColor" color="#5d656b"/></svg>

<svg xmlns="http://www.w3.org/2000/svg" viewBox="0 0 24 24">
  <defs id="defs3051">
    <style type="text/css" id="current-color-scheme">
      .ColorScheme-Text {
        color:#5d656b;
      }
      </style>
  </defs>
 <path style="fill:currentColor;fill-opacity:1;stroke:none" 
     d="M 4 4 L 4 13 L 4 14 L 5 14 L 7 14 L 7 13 L 5 13 L 5 5 L 16 5 L 16 9 L 17 9 L 17 4 L 16 4 L 5 4 L 4 4 z M 8 10 L 8.0996094 11 L 9 20 L 10 20 L 19 20 L 20 20 L 19.900391 19 L 19 10 L 18 10 L 9 10 L 8 10 z M 9.0996094 11 L 18.099609 11 L 18.900391 19 L 9.9003906 19 L 9.0996094 11 z "
     class="ColorScheme-Text"
     />
</svg>
